X:1
T:Title
%%score 1 { ( 2 5 ) | ( 3 4 ) }
L:1/8
M:4/4
K:Eb
V:1 treble nm="Akkordion"
V:2 treble nm="Grand Piano"
V:5 treble 
V:3 bass 
V:4 bass 
V:1
 z8[Q:1/4=94] | z8 | z8 | z8 |[M:3/4] z6 |[M:1/4] EF |[M:4/4] GBcB BGFE | CE E>C B,2 EF | %8
 GBcB BGFE | CFFG F2 FG | AAAA AFGA | BBBc B2 GB | cedc cBGE |[M:3/4] GA GF E2 |[M:1/4] z2 | %15
[M:4/4] z8 | z8 | z8 | z8 | z8 | z8 | %21
 z8[Q:1/4=91][Q:1/4=88][Q:1/4=85][Q:1/4=82][Q:1/4=79][Q:1/4=76][Q:1/4=73] |[M:7/8] z7 |] %23
V:2
 z4 z2 EF | GBcB BGFE | CEAB cedc | BeGc BEAG |[M:3/4] [A,B,F]4[K:bass] [E,G,B,E]2 |[M:1/4] z2 | %6
[M:4/4] z2[K:treble] GB,[K:bass] z B,[K:treble] .G2 | z2 AC[K:bass] z B,[K:treble] .G2 | %8
 z2 G[K:bass]B, z B,[K:treble] .G2 | z A,FC [B,DF]2 GG | A,B,DB, A,B,DB, | G,B,EB, G,B,EB, | %12
 A,[K:treble]CEC G,B,E[K:bass]B, |[M:3/4] A,B, DB, [E,G,B,E]2 |[M:1/4][K:treble] [B,EG][B,FA] | %15
[M:4/4] [EGB]2 [Be]2 e c2 c | [GB]2 [Ac]2 [GB] G2 F | E2 G2 cBAG | %18
 [=A,EG][A,EF][A,EF][A,E] [B,DF]2 [B,EG][B,FA] | [EGB]2 [Be]2 e c2 c | [=Ac]2 f2 f d2 B | %21
 ddcd eB[Ec][CEA] |[M:7/8] [EG][FA][EG]>F E3 |] %23
V:3
 z8 | z B,EB, z B,EB, | [A,,E,A,]4 [=A,,E,_G,]4 | [B,,G,]2 z2 G,2 F,E, | %4
[M:3/4] [B,,D,]B,, C,D, E,,2 |[M:1/4][K:treble] EF |[M:4/4][K:bass] z B, .E2 z2 EB, | %7
 z C .E2 z2 EB, | z B, .E2 z2 EB, | z2 .[CE]2 B,,2 DE | B,,4 B,,,4 | E,,4 E,4 | A,,4 E,4 | %13
[M:3/4] B,,4 E,,2 |[M:1/4] E,E, |[M:4/4] E,2[K:treble] [G,_D]2 [A,CA] [A,EA]2 [A,EA] | %16
 [E,E]2 [E,E]2 [E,E] [E,B,E]2 [E,A,B,] | [E,G,B,]2 [E,B,E]2 [A,E][G,B,E][F,B,D][E,B,E] | %18
 C,C,C,C, B,,A,G,F, | E,2[K:treble] [G,_D]2 [A,CA] [A,EA]2 [A,EA] | %20
 [F,E]2 [=A,CF]2 [B,DF] [B,G]2 [B,D] | %21
 [A,B,F][A,B,F][A,B,F][A,B,F][K:bass] [G,B,E][G,B,E][A,,A,][A,,A,] | %22
[M:7/8] [B,,B,][B,,B,][B,,B,]>[B,,A,B,] [E,G,B,]3 |] %23
V:4
 x8 | E,4 E,4 | x8 | z4 B,,4 |[M:3/4] x6 |[M:1/4][K:treble] x2 |[M:4/4][K:bass] E,4 z4 | A,,4 z4 | %8
 E,4 z4 | C,4 z4 | x8 | x8 | x8 |[M:3/4] x6 |[M:1/4] x2 |[M:4/4] x2[K:treble] x6 | x8 | x8 | x8 | %19
 x2[K:treble] x6 | x8 | x4[K:bass] x4 |[M:7/8] x7 |] %23
V:5
 x8 | x8 | x8 | x8 |[M:3/4] x4[K:bass] x2 |[M:1/4] x2 | %6
[M:4/4] z4[K:treble][K:bass] E,,4[K:treble] | z4[K:bass] E,,4[K:treble] | %8
 z4[K:bass] E,,4[K:treble] | x8 | x8 | x8 | x[K:treble] x6[K:bass] x |[M:3/4] x6 | %14
[M:1/4][K:treble] x2 |[M:4/4] x8 | x8 | x8 | x8 | x8 | x8 | x8 |[M:7/8] x7 |] %23

